X: 801
M: 6/8
L: 1/8
K: D
V: 1
c>BA B>AF | dAF TE2D | (FE)D DFD | TF3 A2 :|
|: A |\
d>ef efd | eBf Te2d | d>ef (ef)d | c>BA d2e |\
V: 2 clef=bass middle=d
z |\
d3 d2f | a2d a2d | d3 d3 | c3 B3 |\
|: z |\
d2d' a2b | c'2d' a2d' | d3 g3 | a2g f2g |\
a3 d2g | f2d a2d | d3 D3 | dAF D2 :|

